app/src/main/assets/symbols/accommodation/camping.svg

﻿<?xml version="1.0" encoding="UTF-8" standalone="no"?>
<!-- Created with Inkscape (http://www.inkscape.org/) -->

<svg
   xmlns="http://www.w3.org/2000/svg"
   version="1.1"
   width="16"
   height="16"
   viewBox="0 0 16 16">
  <path
     d="M 15,15 9.0000011,3.9999992 10.000001,1 9.0000011,1 8.0000012,2.9999995 7.0000003,1 6.0000005,1 7.0000003,3.9999992 1,15 z m -6.9999988,-7.0000008 2.9999998,6.0000018 -6.0000005,0 z"
     style="fill:#0092da;fill-rule:evenodd" transform="translate(1,1)"/>
</svg>

<?xml version="1.0" encoding="UTF-8"?>
<svg version="1.1" viewBox="0 0 16 16" xmlns="http://www.w3.org/2000/svg" xmlns:cc="http://creativecommons.org/ns#" xmlns:dc="http://purl.org/dc/elements/1.1/" xmlns:rdf="http://www.w3.org/1999/02/22-rdf-syntax-ns#">
<metadata>
<rdf:RDF>
<cc:Work rdf:about="">
<dc:format>image/svg+xml</dc:format>
<dc:type rdf:resource="http://purl.org/dc/dcmitype/StillImage"/>
</cc:Work>
</rdf:RDF>
</metadata>
<path d="m15 15-6-11 1-3h-1l-1 2-1-2h-1l1 3-6 11zm-7-7 3 6h-6z" fill="#0092da" fill-rule="evenodd"/>
</svg>
